X:1
T:It Ain't my Fault
C:Joseph "Smokey" Johnson Jr.  (1964)
R:Second line
M:4/4
L:1/8
Q:1/4=95
F:https://www.youtube.com/watch?v=ETTxrKvATtw
K:Bb
B-|: "Bb" B5 z/2F/2_A =A | B z6 B-|B5 z/2F/2_A A| "F7" F z6 B-|
w: No, _ it ain't my fault.  No, _ it ain't my fault. No,
"Bb" B5 z/2F/2_A F| "Eb" _E z6 _d | "Bb" B z2 _A "F7" F z/2E/2_A =A| "Bb" B z3 z4 :|]
w: _ it ain't my fault.  Oh Lord, oh Lord, it ain't my fault.